COLOR/apps 16/16/remmina.svg

<svg height="16" viewBox="0 0 4.233125 4.233125" width="16" xmlns="http://www.w3.org/2000/svg" xmlns:xlink="http://www.w3.org/1999/xlink"><linearGradient id="a" gradientTransform="matrix(.08888452 0 0 .08888455 -4.327194 -319.06813)" gradientUnits="userSpaceOnUse" x1="13.735326" x2="38.099998" y1="249.69423" y2="292.76666"><stop offset="0" stop-color="#faf8f6"/><stop offset="1" stop-color="#f1f0e9"/></linearGradient><g transform="translate(0 -292.76353)"><circle cx="-2.116563" cy="-294.8801" fill="url(#a)" r="2.116563" stroke-width=".355556" transform="scale(-1)"/><path d="m.05724025 295.06821a2.0695276 2.0695268 0 0 0 2.05928545 1.88139 2.0695276 2.0695268 0 0 0 2.0601114-1.88139z" fill="#fff" opacity=".1" stroke-width=".355556"/><g enable-background="new" transform="matrix(.04651752 0 0 .04651752 .329243 293.09265)"><path d="m29.549 32.877-8.931 5.954v9.181l22.702-15.135-22.702-15.135v9.181z" fill="#20aa73"/><path d="m46.457 44.097 8.931-5.954v-9.181l-22.703 15.135 22.703 15.135v-9.181z" fill="#4a93dd"/><path d="m64.776 23.074c2.632 4.509 4.147 9.75 4.147 15.348 0 16.845-13.656 30.5-30.5 30.5-9.922 0-18.734-4.741-24.304-12.077l-6.589 4.393c7.005 9.461 18.243 15.607 30.892 15.607 21.186 0 38.423-17.236 38.423-38.423 0-7.215-2.002-13.97-5.476-19.744z" fill="#20aa73"/><path d="m7.922 38.423c0-16.845 13.656-30.5 30.5-30.5 9.826 0 18.561 4.652 24.139 11.868l6.596-4.397c-7.015-9.341-18.181-15.394-30.734-15.394-21.187 0-38.423 17.236-38.423 38.423 0 7.12 1.954 13.789 5.343 19.513l6.594-4.396c-2.55-4.457-4.015-9.615-4.015-15.117z" fill="#4a93dd"/></g><path d="m8 0a8.0000004 8.0000004 0 0 0 -8 8 8.0000004 8.0000004 0 0 0 .00976563.2929688 8.0000004 8.0000004 0 0 1 7.99023437-7.7929688 8.0000004 8.0000004 0 0 1 7.990234 7.7070312 8.0000004 8.0000004 0 0 0 .009766-.2070312 8.0000004 8.0000004 0 0 0 -8-8z" fill="#faf8f6" stroke-width="1.343898" transform="matrix(.26457031 0 0 .26457031 0 292.76353)"/><path d="m2.1169826 296.99661a2.1165626 2.1165626 0 0 0 2.11656-2.11657 2.1165626 2.1165626 0 0 0 -.003-.0775 2.1165626 2.1165626 0 0 1 -2.11398 2.06179 2.1165626 2.1165626 0 0 1 -2.11398005-2.03905 2.1165626 2.1165626 0 0 0 -.003.0548 2.1165626 2.1165626 0 0 0 2.11657005 2.11657z" opacity=".2" stroke-width=".355556"/></g></svg>

<?xml version="1.0" encoding="UTF-8" standalone="no"?>
<svg
   xmlns:dc="http://purl.org/dc/elements/1.1/"
   xmlns:cc="http://creativecommons.org/ns#"
   xmlns:rdf="http://www.w3.org/1999/02/22-rdf-syntax-ns#"
   xmlns:svg="http://www.w3.org/2000/svg"
   xmlns="http://www.w3.org/2000/svg"
   xmlns:sodipodi="http://sodipodi.sourceforge.net/DTD/sodipodi-0.dtd"
   xmlns:inkscape="http://www.inkscape.org/namespaces/inkscape"
   height="16"
   viewBox="0 0 4.233125 4.233125"
   width="16"
   version="1.1"
   id="svg38"
   sodipodi:docname="remmina.svg"
   inkscape:version="0.92.4 (5da689c313, 2019-01-14)">
  <metadata
     id="metadata44">
    <rdf:RDF>
      <cc:Work
         rdf:about="">
        <dc:format>image/svg+xml</dc:format>
        <dc:type
           rdf:resource="http://purl.org/dc/dcmitype/StillImage" />
        <dc:title></dc:title>
      </cc:Work>
    </rdf:RDF>
  </metadata>
  <defs
     id="defs42" />
  <sodipodi:namedview
     pagecolor="#ffffff"
     bordercolor="#666666"
     borderopacity="1"
     objecttolerance="10"
     gridtolerance="10"
     guidetolerance="10"
     inkscape:pageopacity="0"
     inkscape:pageshadow="2"
     inkscape:window-width="1920"
     inkscape:window-height="1016"
     id="namedview40"
     showgrid="false"
     inkscape:zoom="52.437497"
     inkscape:cx="8.0000004"
     inkscape:cy="7.9999851"
     inkscape:window-x="0"
     inkscape:window-y="27"
     inkscape:window-maximized="1"
     inkscape:current-layer="g36" />
  <linearGradient
     id="a"
     gradientTransform="matrix(0.06326681,0,0,0.06326678,0.276074,284.44101)"
     gradientUnits="userSpaceOnUse"
     x1="96"
     x2="96"
     y1="4.0000062"
     y2="188">
    <stop
       offset="0"
       stop-color="#fff"
       id="stop2" />
    <stop
       offset=".125"
       stop-color="#fff"
       stop-opacity=".098039"
       id="stop4" />
    <stop
       offset=".92500001"
       stop-color="#fff"
       stop-opacity=".098039"
       id="stop6" />
    <stop
       offset="1"
       stop-color="#fff"
       stop-opacity=".498039"
       id="stop8" />
  </linearGradient>
  <linearGradient
     id="b"
     gradientTransform="matrix(0.08888452,0,0,0.08888455,-4.3271935,-319.06813)"
     gradientUnits="userSpaceOnUse"
     x1="13.735326"
     x2="38.099998"
     y1="249.69423"
     y2="292.76666">
    <stop
       offset="0"
       stop-color="#faf8f6"
       id="stop11" />
    <stop
       offset="1"
       stop-color="#f1f0e9"
       id="stop13" />
  </linearGradient>
  <g
     transform="translate(0,-292.76353)"
     id="g36">
    <circle
       cx="-2.1165626"
       cy="-294.8801"
       r="2.1165626"
       transform="scale(-1)"
       id="circle18"
       style="fill:url(#b);stroke-width:0.35555553" />
    <path
       d="m 0.05724025,295.06821 a 2.0695276,2.0695268 0 0 0 2.05928545,1.88139 2.0695276,2.0695268 0 0 0 2.0601114,-1.88139 z"
       id="path20"
       inkscape:connector-curvature="0"
       style="opacity:0.1;fill:#ffffff;stroke-width:0.35555553" />
    <g
       transform="matrix(0.04651752,0,0,0.04651752,0.32924307,293.09265)"
       id="g30"
       style="enable-background:new">
      <path
         d="m 29.549,32.877 -8.931,5.954 v 9.181 L 43.32,32.877 20.618,17.742 v 9.181 z"
         id="path22"
         inkscape:connector-curvature="0"
         style="fill:#20aa73" />
      <path
         d="m 46.457,44.097 8.931,-5.954 V 28.962 L 32.685,44.097 55.388,59.232 v -9.181 z"
         id="path24"
         inkscape:connector-curvature="0"
         style="fill:#4a93dd" />
      <path
         d="m 64.776,23.074 c 2.632,4.509 4.147,9.75 4.147,15.348 0,16.845 -13.656,30.5 -30.5,30.5 -9.922,0 -18.734,-4.741 -24.304,-12.077 L 7.53,61.238 c 7.005,9.461 18.243,15.607 30.892,15.607 21.186,0 38.423,-17.236 38.423,-38.423 0,-7.215 -2.002,-13.97 -5.476,-19.744 z"
         id="path26"
         inkscape:connector-curvature="0"
         style="fill:#20aa73" />
      <path
         d="m 7.922,38.423 c 0,-16.845 13.656,-30.5 30.5,-30.5 9.826,0 18.561,4.652 24.139,11.868 l 6.596,-4.397 C 62.142,6.053 50.976,0 38.423,0 17.236,0 0,17.236 0,38.423 0,45.543 1.954,52.212 5.343,57.936 L 11.937,53.54 C 9.387,49.083 7.922,43.925 7.922,38.423 Z"
         id="path28"
         inkscape:connector-curvature="0"
         style="fill:#4a93dd" />
    </g>
    <path
       style="fill:#faf8f6;stroke-width:1.34389806;fill-opacity:1"
       d="M 8 0 A 8.0000004 8.0000004 0 0 0 0 8 A 8.0000004 8.0000004 0 0 0 0.009765625 8.2929688 A 8.0000004 8.0000004 0 0 1 8 0.5 A 8.0000004 8.0000004 0 0 1 15.990234 8.2070312 A 8.0000004 8.0000004 0 0 0 16 8 A 8.0000004 8.0000004 0 0 0 8 0 z "
       transform="matrix(0.26457031,0,0,0.26457031,0,292.76353)"
       id="circle851" />
    <path
       id="path860"
       d="m 2.1169826,296.99661 a 2.1165626,2.1165626 0 0 0 2.11656,-2.11657 2.1165626,2.1165626 0 0 0 -0.003,-0.0775 2.1165626,2.1165626 0 0 1 -2.11398,2.06179 2.1165626,2.1165626 0 0 1 -2.11398005,-2.03905 2.1165626,2.1165626 0 0 0 -0.003,0.0548 2.1165626,2.1165626 0 0 0 2.11657005,2.11657 z"
       style="fill:#000000;fill-opacity:1;stroke-width:0.35555553;opacity:0.2"
       inkscape:connector-curvature="0" />
  </g>
</svg>
